X: 1563
T: Jack and Lil
B: australian traditional tunes wiki
M:4/4
L:1/8
R: Set Tune
Q: 1/4=100
K:D
V:1 
|:"D"a2a2a2f2|"G"b2a2"D"f2fd|"A"e2e2e2de|"D"f2d2B2A2|
"D"a2a2a2f2|"G"b2a2"D"f2fd|"A7"e2g2f2e2|"D"d6zd:|
|:"D"A2d2"G"Bc dB|"D"A2d2"G"Bc dB|"D"A2f2e2d2|"A"e6zd|
"D"A2d2"G"Bc dB|"D"A2d2"G"Bc dB|"A"e2f2g2c2|"D"d2z2d2z2:|
% abcbook-tune_id 6342d53a9eb0277158494c7e


% abcbook-boost 0
% abcbook-tablature 
% abcbook-transpose 
% abcbook-lastupdated 1665324371243
% abcbook-soundfonts 
% abcbook-repeats 1
% NFF Book 2006

